src/pos-icons/plus-box-multiple.svg

<svg height="24" viewBox="0 0 24 24" width="24" xmlns="http://www.w3.org/2000/svg"><path d="m19 11h-4v4h-2v-4h-4v-2h4v-4h2v4h4m1-7h-12a2 2 0 0 0 -2 2v12a2 2 0 0 0 2 2h12a2 2 0 0 0 2-2v-12a2 2 0 0 0 -2-2m-16 4h-2v14a2 2 0 0 0 2 2h14v-2h-14z"/></svg>

<?xml version="1.0" encoding="UTF-8"?><!DOCTYPE svg PUBLIC "-//W3C//DTD SVG 1.1//EN" "http://www.w3.org/Graphics/SVG/1.1/DTD/svg11.dtd"><svg xmlns="http://www.w3.org/2000/svg" xmlns:xlink="http://www.w3.org/1999/xlink" version="1.1" id="mdi-plus-box-multiple" width="24" height="24" viewBox="0 0 24 24"><path d="M19,11H15V15H13V11H9V9H13V5H15V9H19M20,2H8A2,2 0 0,0 6,4V16A2,2 0 0,0 8,18H20A2,2 0 0,0 22,16V4A2,2 0 0,0 20,2M4,6H2V20A2,2 0 0,0 4,22H18V20H4V6Z" /></svg>
